third_party/noto/noto_2/emoji_u1f4fb.svg

<svg enable-background="new 0 0 128 128" version="1.1" viewBox="0 0 128 128" xmlns="http://www.w3.org/2000/svg"><path d="m21.45 48.39-2.1-5.81 92.28-28.5c1.1-0.37 2.3 0.22 2.7 1.34s-0.14 2.34-1.22 2.77l-91.66 30.2z" fill="#82AEC0"/><path d="m115.59 46.1c-7.62-5.2-10.78-5.35-13.41-5.35h-76.36c-2.63 0-5.79 0.16-13.41 5.35-7.62 5.2-8.41 8.53-8.41 15.69v42.51c0 5.05 4.09 9.14 9.14 9.14h101.73c5.05 0 9.14-4.09 9.14-9.14v-42.51c-0.01-7.16-0.8-10.49-8.42-15.69z" fill="#DE7340"/><path d="m115.25 51.31h-102.5c-4.83 0-8.75 3.92-8.75 8.75v55.2c0 4.83 3.92 8.75 8.75 8.75h102.51c4.83 0 8.75-3.92 8.75-8.75v-55.2c-0.01-4.83-3.93-8.75-8.76-8.75z" fill="#FFAB00"/><path d="m112.43 88.18h-51.95c-1.67 0-3.02-1.35-3.02-3.02v-16.37c0-1.67 1.35-3.02 3.02-3.02h51.96c1.67 0 3.02 1.35 3.02 3.02v16.37c-0.01 1.67-1.36 3.02-3.03 3.02z" fill="#212121"/><g fill="#DE7340"><circle cx="72.66" cy="108.23" r="9.18"/><circle cx="104.48" cy="108.23" r="9.18"/></g><circle cx="70.54" cy="106.36" r="9.18" fill="#FCEBCD"/><circle cx="102.37" cy="106.36" r="9.18" fill="#FCEBCD"/><path d="m99.97 106.21c-0.35 0-0.71-0.11-1.01-0.34l-4.79-3.64s0.33-0.69 0.89-1.42 1.13-1.24 1.13-1.24l4.79 3.64c0.73 0.56 0.88 1.61 0.32 2.34-0.33 0.43-0.83 0.66-1.33 0.66z" fill="#78909C"/><line x1="57.46" x2="115.45" y1="76.97" y2="76.97" fill="none" stroke="#82AEC0" stroke-miterlimit="10" stroke-width="2"/><g fill="#82AEC0"><rect x="61.37" y="71.35" width="5.54" height="2.54"/><rect x="104.7" y="71.35" width="5.54" height="2.54"/><rect x="93.87" y="71.35" width="5.54" height="2.54"/><rect x="83.03" y="71.35" width="5.54" height="2.54"/><rect x="72.2" y="71.35" width="5.54" height="2.54"/></g><g fill="#82AEC0"><rect x="66.91" y="80.06" width="3.52" height="2.54"/><rect x="78.33" y="80.06" width="3.52" height="2.54"/><rect x="89.76" y="80.06" width="3.52" height="2.54"/><rect x="101.18" y="80.06" width="3.52" height="2.54"/></g><rect x="74.97" y="71.35" width="1.4" height="2.54" fill="#2F7889"/><rect x="74.97" y="75.97" width="1.4" height="2.01" fill="#2F7889"/><line x1="74.33" x2="74.33" y1="65.77" y2="88.18" fill="none" stroke="#F44336" stroke-miterlimit="10" stroke-width="2"/><path d="m112.43 65.77c1.67 0 3.02 1.35 3.02 3.02v16.37c0 1.67-1.35 3.02-3.02 3.02h-51.95c-1.67 0-3.02-1.35-3.02-3.02v-16.37c0-1.67 1.35-3.02 3.02-3.02h51.95m0-2h-51.95c-2.77 0-5.02 2.25-5.02 5.02v16.37c0 2.77 2.25 5.02 5.02 5.02h51.96c2.77 0 5.02-2.25 5.02-5.02v-16.37c-0.01-2.77-2.26-5.02-5.03-5.02z" fill="#DE7340"/><path d="m70.54 105.02c-0.92 0-1.67-0.75-1.67-1.67v-6.02s0.75-0.15 1.67-0.15 1.67 0.15 1.67 0.15v6.02c0 0.92-0.74 1.67-1.67 1.67z" fill="#78909C"/><g fill="none" stroke="#546E7A" stroke-linecap="round" stroke-miterlimit="10" stroke-width="4"><line x1="12.94" x2="46.8" y1="67" y2="67"/><line x1="12.94" x2="46.8" y1="76.01" y2="76.01"/><line x1="12.94" x2="46.8" y1="85.03" y2="85.03"/><line x1="12.94" x2="46.8" y1="94.04" y2="94.04"/><line x1="12.94" x2="46.8" y1="103.05" y2="103.05"/><line x1="12.94" x2="46.8" y1="112.06" y2="112.06"/></g><path d="m117.45 71.19c0-4.33-3.07-4.7-3.07-4.7 0.64 0.56 0.88 1.27 0.95 1.5 0.01 0.03 0.12 0.32 0.12 0.81v16.37c0 0.83-0.34 1.59-0.88 2.13s-1.3 0.88-2.13 0.88h-51.96c-0.52 0-0.84-0.13-0.9-0.15-1-0.31-1.77-1.12-2.02-2.14-0.01-0.02-0.02-0.04-0.02-0.06 0 0-0.65 1.3-0.38 2.44 0.25 1.03 1.32 1.91 3.32 1.91h51.96c2.77 0 5.02-2.25 5.02-5.02l-0.01-13.97z" fill="#FFF59D"/></svg>

<?xml version="1.0" encoding="utf-8"?>
<!-- Generator: Adobe Illustrator 25.2.3, SVG Export Plug-In . SVG Version: 6.00 Build 0)  -->
<svg version="1.1" id="Layer_3" xmlns="http://www.w3.org/2000/svg" xmlns:xlink="http://www.w3.org/1999/xlink" x="0px" y="0px"
	 viewBox="0 0 128 128" style="enable-background:new 0 0 128 128;" xml:space="preserve">
<g>
	<path style="fill:#82AEC0;" d="M21.45,48.39l-2.1-5.81l92.28-28.5c1.1-0.37,2.3,0.22,2.7,1.34v0c0.4,1.12-0.14,2.34-1.22,2.77
		L21.45,48.39z"/>
	<path style="fill:#DE7340;" d="M115.59,46.1c-7.62-5.2-10.78-5.35-13.41-5.35H70.85H57.15H25.82c-2.63,0-5.79,0.16-13.41,5.35
		C4.79,51.3,4,54.63,4,61.79v42.51c0,5.05,4.09,9.14,9.14,9.14h101.73c5.05,0,9.14-4.09,9.14-9.14V61.79
		C124,54.63,123.21,51.3,115.59,46.1z"/>
	<path style="fill:#FFAB00;" d="M115.25,51.31H12.75C7.92,51.31,4,55.23,4,60.06v55.2c0,4.83,3.92,8.75,8.75,8.75h102.51
		c4.83,0,8.75-3.92,8.75-8.75v-55.2C124,55.23,120.08,51.31,115.25,51.31z"/>
	<g>
		<g>
			<path style="fill:#212121;" d="M112.43,88.18H60.48c-1.67,0-3.02-1.35-3.02-3.02V68.79c0-1.67,1.35-3.02,3.02-3.02h51.96
				c1.67,0,3.02,1.35,3.02,3.02v16.37C115.45,86.83,114.1,88.18,112.43,88.18z"/>
		</g>
		<g>
			<circle style="fill:#DE7340;" cx="72.66" cy="108.23" r="9.18"/>
			<circle style="fill:#DE7340;" cx="104.48" cy="108.23" r="9.18"/>
		</g>
		<g>
			<g>
				<circle style="fill:#FCEBCD;" cx="70.54" cy="106.36" r="9.18"/>
			</g>
			<g>
				<circle style="fill:#FCEBCD;" cx="102.37" cy="106.36" r="9.18"/>
			</g>
			<g>
				<path style="fill:#78909C;" d="M99.97,106.21c-0.35,0-0.71-0.11-1.01-0.34l-4.79-3.64c0,0,0.33-0.69,0.89-1.42
					c0.56-0.73,1.13-1.24,1.13-1.24l4.79,3.64c0.73,0.56,0.88,1.61,0.32,2.34C100.97,105.98,100.47,106.21,99.97,106.21z"/>
			</g>
		</g>
	</g>
	<line style="fill:none;stroke:#82AEC0;stroke-width:2;stroke-miterlimit:10;" x1="57.46" y1="76.97" x2="115.45" y2="76.97"/>
	<g>
		<rect x="61.37" y="71.35" style="fill:#82AEC0;" width="5.54" height="2.54"/>
		<rect x="104.7" y="71.35" style="fill:#82AEC0;" width="5.54" height="2.54"/>
		<rect x="93.87" y="71.35" style="fill:#82AEC0;" width="5.54" height="2.54"/>
		<rect x="83.03" y="71.35" style="fill:#82AEC0;" width="5.54" height="2.54"/>
		<rect x="72.2" y="71.35" style="fill:#82AEC0;" width="5.54" height="2.54"/>
	</g>
	<g>
		<rect x="66.91" y="80.06" style="fill:#82AEC0;" width="3.52" height="2.54"/>
		<rect x="78.33" y="80.06" style="fill:#82AEC0;" width="3.52" height="2.54"/>
		<rect x="89.76" y="80.06" style="fill:#82AEC0;" width="3.52" height="2.54"/>
		<rect x="101.18" y="80.06" style="fill:#82AEC0;" width="3.52" height="2.54"/>
	</g>
	<rect x="74.97" y="71.35" style="fill:#2F7889;" width="1.4" height="2.54"/>
	<rect x="74.97" y="75.97" style="fill:#2F7889;" width="1.4" height="2.01"/>
	<line style="fill:none;stroke:#F44336;stroke-width:2;stroke-miterlimit:10;" x1="74.33" y1="65.77" x2="74.33" y2="88.18"/>
	<g>
		<path style="fill:#DE7340;" d="M112.43,65.77c1.67,0,3.02,1.35,3.02,3.02v16.37c0,1.67-1.35,3.02-3.02,3.02H60.48
			c-1.67,0-3.02-1.35-3.02-3.02V68.79c0-1.67,1.35-3.02,3.02-3.02H112.43 M112.43,63.77H60.48c-2.77,0-5.02,2.25-5.02,5.02v16.37
			c0,2.77,2.25,5.02,5.02,5.02h51.96c2.77,0,5.02-2.25,5.02-5.02V68.79C117.45,66.02,115.2,63.77,112.43,63.77L112.43,63.77z"/>
	</g>
	<g>
		<path style="fill:#78909C;" d="M70.54,105.02c-0.92,0-1.67-0.75-1.67-1.67v-6.02c0,0,0.75-0.15,1.67-0.15
			c0.92,0,1.67,0.15,1.67,0.15v6.02C72.21,104.27,71.47,105.02,70.54,105.02z"/>
	</g>
	<g>
		
			<line style="fill:none;stroke:#546E7A;stroke-width:4;stroke-linecap:round;stroke-miterlimit:10;" x1="12.94" y1="67" x2="46.8" y2="67"/>
		
			<line style="fill:none;stroke:#546E7A;stroke-width:4;stroke-linecap:round;stroke-miterlimit:10;" x1="12.94" y1="76.01" x2="46.8" y2="76.01"/>
		
			<line style="fill:none;stroke:#546E7A;stroke-width:4;stroke-linecap:round;stroke-miterlimit:10;" x1="12.94" y1="85.03" x2="46.8" y2="85.03"/>
		
			<line style="fill:none;stroke:#546E7A;stroke-width:4;stroke-linecap:round;stroke-miterlimit:10;" x1="12.94" y1="94.04" x2="46.8" y2="94.04"/>
		
			<line style="fill:none;stroke:#546E7A;stroke-width:4;stroke-linecap:round;stroke-miterlimit:10;" x1="12.94" y1="103.05" x2="46.8" y2="103.05"/>
		
			<line style="fill:none;stroke:#546E7A;stroke-width:4;stroke-linecap:round;stroke-miterlimit:10;" x1="12.94" y1="112.06" x2="46.8" y2="112.06"/>
	</g>
	<path style="fill:#FFF59D;" d="M117.45,71.19c0-4.33-3.07-4.7-3.07-4.7c0.64,0.56,0.88,1.27,0.95,1.5
		c0.01,0.03,0.12,0.32,0.12,0.81v16.37c0,0.83-0.34,1.59-0.88,2.13s-1.3,0.88-2.13,0.88H60.48c-0.52,0-0.84-0.13-0.9-0.15
		c-1-0.31-1.77-1.12-2.02-2.14c-0.01-0.02-0.02-0.04-0.02-0.06c0,0-0.65,1.3-0.38,2.44c0.25,1.03,1.32,1.91,3.32,1.91h51.96
		c2.77,0,5.02-2.25,5.02-5.02L117.45,71.19L117.45,71.19z"/>
</g>
</svg>
